Yaru++/apps/scalable/dropbox.svg

<svg height="256" viewBox="0 0 256 256" width="256" xmlns="http://www.w3.org/2000/svg" xmlns:xlink="http://www.w3.org/1999/xlink"><filter id="a" color-interpolation-filters="sRGB" height="1.119" width="1.156" x="-.08" y="-.06"><feGaussianBlur stdDeviation="1.932"/></filter><filter id="b" color-interpolation-filters="sRGB" height="1.126" width="1.155" x="-.08" y="-.06"><feGaussianBlur stdDeviation="1.932"/></filter><filter id="c" color-interpolation-filters="sRGB" height="1.238" width="1.078" x="-.04" y="-.12"><feGaussianBlur stdDeviation="1.932"/></filter><filter id="d" color-interpolation-filters="sRGB" height="1.024881" width="1.023179" x="-.01159" y="-.01244"><feGaussianBlur stdDeviation="1.1010153"/></filter><filter id="e" color-interpolation-filters="sRGB" height="1.099524" width="1.092717" x="-.046359" y="-.049762"><feGaussianBlur stdDeviation="4.4040611"/></filter><path d="m80.71634 21.976893-67.21634 43.557128 46.78366 37.640839-46.78366 36.56532 47.50133 31.16193v23.5797l67.03544 39.90119 67.86243-39.90119v-24.41466-.002l45.6008-29.78623-46.24491-37.10406 46.24491-37.640839-66.67959-43.557128-47.32041 39.255092z" filter="url(#e)" opacity=".1" stroke-width="1.139992"/><path d="m80.71634 21.976893-67.21634 43.557128 46.78366 37.640839-46.78366 36.56532 47.50133 31.16193v23.5797l67.03544 39.90119 67.86243-39.90119v-24.41466-.002l45.6008-29.78623-46.24491-37.10406 46.24491-37.640839-66.67959-43.557128-47.32041 39.255092z" filter="url(#d)" opacity=".1" stroke-width="1.139992"/><path d="m80.71634 21.976893-67.21634 43.557128 46.78366 37.640839-46.78366 36.56532 47.50133 31.16193v23.5797l67.03544 39.90119 67.86243-39.90119v-24.41466-.002l45.6008-29.78623-46.24491-37.10406 46.24491-37.640839-66.67959-43.557128-47.32041 39.255092z" opacity=".1" stroke-width="1.139992"/><path d="m115 81.729164v73.684886l4.21548.73245 55.21809-33.2422-.0228-14.50522-46.44202-30.436196c-3.11382.80385-6.74782 1.914831-12.96878 3.76628z" fill="#090909" filter="url(#a)" opacity=".3" transform="matrix(1.1199926 0 0 1.1199926 -.79989 -30.51828)"/><path d="m115 81.729164c-7.29202 2.170217-15.201823 4.414066-15.201823 4.414066l-44.710287 20.43945.950523 16.32162 51.425797 31.19792 7.53579 1.31183z" fill="#090909" filter="url(#b)" opacity=".3" transform="matrix(1.1199926 0 0 1.1199926 -.79989 -30.51828)"/><path d="m56.666668 182.26182 17.295596 11.39854 41.037736-34.43394v-4.5l-41.037736 34.43396-17.295596-11.39897zm58.333332-23.0354 41.50945 34.43394 18.49055-12.06656v-4.51296l-18.49055 12.07954-41.50945-34.43396z" fill="#090909" filter="url(#c)" opacity=".3" transform="matrix(1.1199926 0 0 1.1199926 -.79989 -30.51828)"/><g stroke-width="1.119993"><path d="m127.99926 61.01778v82.52654l4.72131.82034 61.84386-37.23103-.0255-16.24574-52.01471-34.08831c-3.48746.9003-7.55751 2.14459-14.52495 4.2182z" fill="#80a3fa"/><path d="m127.99926 61.01778c-8.16701 2.43063-17.02592 4.94373-17.02592 4.94373l-50.075199 22.89203 1.064579 18.28009 57.59652 34.94144 8.44002 1.46925z" fill="#a2bcfe"/><path d="m82.037301 27.36208-66.037301 37.75221v5.03997l45.961962 36.98089 66.037298-41.20728v-5.03997zm-66.037301 115.69736 66.037301 43.32046 45.961959-38.56576v-5.03997l-66.037298-35.63902-45.961962 30.88431zm111.99926 4.7547 46.49029 38.56576 65.50898-42.79219v-5.03997l-45.43368-31.41259-66.56559 35.63902zm111.99927-77.65988v-5.03997l-65.50898-37.75221-46.49029 33.52582v5.03997l66.56559 41.20728zm-111.47099 86.11262-46.490239 38.56582-19.37094-13.05575v10.02331l65.332569 38.8862 67.19989-38.8862v-4.86372l-20.70927 7.89616z" fill="#0f1a28" opacity=".2"/><path d="m82.037301 22.32211-66.037301 42.79218 45.961962 36.98089 66.037298-41.20728zm-66.037301 115.69735 66.037301 43.32049 45.961959-38.56578-66.037298-40.67899zm111.99926 4.75471 46.49029 38.56578 65.50898-42.79221-45.43368-36.45256zm111.99927-77.65988-65.50898-42.79218-46.49029 38.56579 66.56559 41.20728z" fill="#5884f4"/><path d="m127.99926 142.77417c-79.643917 71.26157-39.821956 35.63079 0 0zm0 0-45.961959 38.56578-19.37094-12.76675v23.22706l65.861179 39.19974 66.67128-39.19974v-23.9893l-20.70927 13.52899z" fill="#2f5fdd"/><path d="m127.99893 230.68646.52861.31354 66.67095-39.19974v-23.98942l-20.70824 13.52961-46.49132-38.56537z" fill="#234db8"/><path d="m62.666361 173.61362 19.37094 12.76628 45.961959-38.56576v-5.03997l-45.961959 38.56578-19.37094-12.76675zm65.332899-25.79948 46.49029 38.56576 20.70927-13.51446v-5.05448l-20.70927 13.52899-46.49029-38.56578z" fill="#0f1a28" opacity=".2"/><path d="m82.037301 22.32211-66.035819 42.7916 1.542175 1.2403 64.493644-41.79191 44.432199 37.28132 1.53125-.95594zm45.963449 38.56537 1.54655.95812 44.94408-37.2835 63.98177 41.7941 1.52685-1.24249-65.50862-42.7916zm-67.451124 42.31254-44.548144 34.81821 1.557485 1.02155 44.403776-34.70446zm1.413117 1.1353 64.498007 39.72912 1.54-1.29061-64.231145-39.56507zm66.038007 38.43851 1.5553 1.29061 65.00989-39.72912-1.81998-1.12656zm66.56519-38.43851 43.89408 35.21852 1.53998-1.00624-44.0472-35.34102z" fill="#fff" opacity=".3"/><path d="m126.46838 59.60468-64.506761 40.25192 1.806862 1.11343 64.231139-40.08129zm1.53124 1.28406 64.7452 40.08129 1.81999-1.11343-65.01864-40.24973zm66.56519 38.96786 1.38686 1.11125 44.04721-35.85289-1.52685-.9975zm-132.603191 0-44.419087-35.74132-1.542174.99968 44.548144 35.84633zm-44.403776 36.94445-1.557485 1.21842 66.038003 43.32098 45.961259-38.56538-1.53998-.94718-44.421279 37.27257zm110.441777 5.97402 46.49063 38.56538 65.50863-42.7916-1.53998-1.23375-63.96865 41.78536-44.93532-37.27475z" opacity=".2"/><path d="m62.664542 189.56027v2.23999l65.862998 39.19974 66.67018-39.19974v-2.23999l-66.67018 39.19975z" opacity=".2"/></g></svg>

<?xml version="1.0" encoding="UTF-8" standalone="no"?>
<svg
   xmlns:dc="http://purl.org/dc/elements/1.1/"
   xmlns:cc="http://creativecommons.org/ns#"
   xmlns:rdf="http://www.w3.org/1999/02/22-rdf-syntax-ns#"
   xmlns:svg="http://www.w3.org/2000/svg"
   xmlns="http://www.w3.org/2000/svg"
   xmlns:sodipodi="http://sodipodi.sourceforge.net/DTD/sodipodi-0.dtd"
   xmlns:inkscape="http://www.inkscape.org/namespaces/inkscape"
   width="256"
   height="256"
   version="1.1"
   viewBox="0 0 256 256"
   id="svg52"
   sodipodi:docname="dropbox.svg"
   inkscape:version="0.92.4 (5da689c313, 2019-01-14)">
  <metadata
     id="metadata56">
    <rdf:RDF>
      <cc:Work
         rdf:about="">
        <dc:format>image/svg+xml</dc:format>
        <dc:type
           rdf:resource="http://purl.org/dc/dcmitype/StillImage" />
        <dc:title></dc:title>
      </cc:Work>
    </rdf:RDF>
  </metadata>
  <sodipodi:namedview
     pagecolor="#ffffff"
     bordercolor="#666666"
     borderopacity="1"
     objecttolerance="10"
     gridtolerance="10"
     guidetolerance="10"
     inkscape:pageopacity="0"
     inkscape:pageshadow="2"
     inkscape:window-width="1920"
     inkscape:window-height="1016"
     id="namedview54"
     showgrid="false"
     inkscape:zoom="2.7250742"
     inkscape:cx="1.10742"
     inkscape:cy="125.10457"
     inkscape:window-x="0"
     inkscape:window-y="27"
     inkscape:window-maximized="1"
     inkscape:current-layer="svg52" />
  <defs
     id="defs16">
    <filter
       style="color-interpolation-filters:sRGB"
       id="filter1262"
       width="1.156"
       height="1.119"
       x="-0.079999998"
       y="-0.059999999">
      <feGaussianBlur
         id="feGaussianBlur1264"
         stdDeviation="1.932" />
    </filter>
    <filter
       style="color-interpolation-filters:sRGB"
       id="filter1266"
       width="1.155"
       height="1.126"
       x="-0.079999998"
       y="-0.059999999">
      <feGaussianBlur
         id="feGaussianBlur1268"
         stdDeviation="1.932" />
    </filter>
    <filter
       style="color-interpolation-filters:sRGB"
       id="filter1270"
       width="1.046"
       height="1.051"
       x="-0.02"
       y="-0.029999999">
      <feGaussianBlur
         id="feGaussianBlur1272"
         stdDeviation="1.932" />
    </filter>
    <filter
       style="color-interpolation-filters:sRGB"
       id="filter1274"
       width="1.046"
       height="1.0650001"
       x="-0.02"
       y="-0.029999999">
      <feGaussianBlur
         id="feGaussianBlur1276"
         stdDeviation="1.932" />
    </filter>
    <filter
       style="color-interpolation-filters:sRGB"
       id="filter1278"
       width="1.0779999"
       height="1.118"
       x="-0.039999999"
       y="-0.059999999">
      <feGaussianBlur
         id="feGaussianBlur1280"
         stdDeviation="1.932" />
    </filter>
    <filter
       style="color-interpolation-filters:sRGB"
       id="filter1282"
       width="1.155"
       height="1.118"
       x="-0.079999998"
       y="-0.059999999">
      <feGaussianBlur
         id="feGaussianBlur1284"
         stdDeviation="1.932" />
    </filter>
    <filter
       style="color-interpolation-filters:sRGB"
       id="filter1286"
       width="1.0779999"
       height="1.238"
       x="-0.039999999"
       y="-0.12">
      <feGaussianBlur
         id="feGaussianBlur1288"
         stdDeviation="1.932" />
    </filter>
    <filter
       inkscape:collect="always"
       style="color-interpolation-filters:sRGB"
       id="filter894"
       x="-0.011589634"
       width="1.0231793"
       y="-0.012440493"
       height="1.024881">
      <feGaussianBlur
         inkscape:collect="always"
         stdDeviation="1.1010153"
         id="feGaussianBlur896" />
    </filter>
    <filter
       inkscape:collect="always"
       style="color-interpolation-filters:sRGB"
       id="filter920"
       x="-0.046358538"
       width="1.0927171"
       y="-0.049761971"
       height="1.0995239">
      <feGaussianBlur
         inkscape:collect="always"
         stdDeviation="4.4040611"
         id="feGaussianBlur922" />
    </filter>
  </defs>
  <path
     style="opacity:0.1;fill:#000000;fill-opacity:1;stroke-width:1.13999248;filter:url(#filter920)"
     d="M 80.71634,21.976893 13.5,65.534021 60.28366,103.17486 13.5,139.74018 61.00133,170.90211 v 23.5797 l 67.03544,39.90119 67.86243,-39.90119 v -24.41466 -0.002 L 241.5,140.27892 195.25509,103.17486 241.5,65.534021 174.82041,21.976893 127.5,61.231985 Z"
     id="path898"
     inkscape:connector-curvature="0" />
  <path
     inkscape:connector-curvature="0"
     id="path892"
     d="M 80.71634,21.976893 13.5,65.534021 60.28366,103.17486 13.5,139.74018 61.00133,170.90211 v 23.5797 l 67.03544,39.90119 67.86243,-39.90119 v -24.41466 -0.002 L 241.5,140.27892 195.25509,103.17486 241.5,65.534021 174.82041,21.976893 127.5,61.231985 Z"
     style="opacity:0.1;fill:#000000;fill-opacity:1;stroke-width:1.13999248;filter:url(#filter894)" />
  <path
     style="opacity:0.1;fill:#000000;fill-opacity:1;stroke-width:1.13999248"
     d="M 80.71634,21.976893 13.5,65.534021 60.28366,103.17486 13.5,139.74018 61.00133,170.90211 v 23.5797 l 67.03544,39.90119 67.86243,-39.90119 v -24.41466 -0.002 L 241.5,140.27892 195.25509,103.17486 241.5,65.534021 174.82041,21.976893 127.5,61.231985 Z"
     id="path885"
     inkscape:connector-curvature="0" />
  <path
     d="m 115,81.729164 v 73.684886 l 4.21548,0.73245 55.21809,-33.2422 -0.0228,-14.50522 -46.44202,-30.436196 c -3.11382,0.80385 -6.74782,1.914831 -12.96878,3.76628 z"
     style="opacity:0.3;fill:#090909;filter:url(#filter1262)"
     id="path18"
     inkscape:connector-curvature="0"
     transform="matrix(1.1199926,0,0,1.1199926,-0.7998898,-30.51828)" />
  <path
     d="M 115,81.729164 C 107.70798,83.899381 99.798177,86.14323 99.798177,86.14323 L 55.08789,106.58268 56.038413,122.9043 107.46421,154.10222 115,155.41405 Z"
     style="opacity:0.3;fill:#090909;filter:url(#filter1266)"
     id="path20"
     inkscape:connector-curvature="0"
     transform="matrix(1.1199926,0,0,1.1199926,-0.7998898,-30.51828)" />
  <path
     d="M 56.666668,182.26182 73.962264,193.66036 115,159.22642 v -4.5 L 73.962264,189.16038 56.666668,177.76141 Z M 115,159.22642 156.50945,193.66036 175,181.5938 v -4.51296 L 156.50945,189.16038 115,154.72642 Z"
     style="opacity:0.3;fill:#090909;filter:url(#filter1286)"
     id="path30"
     inkscape:connector-curvature="0"
     transform="matrix(1.1199926,0,0,1.1199926,-0.7998898,-30.51828)" />
  <path
     style="fill:#80a3fa;stroke-width:1.11999261"
     d="m 127.99926,61.01778 v 82.52654 l 4.72131,0.82034 61.84386,-37.23103 -0.0255,-16.24574 -52.01471,-34.08831 c -3.48746,0.9003 -7.55751,2.14459 -14.52495,4.2182 z"
     id="path32"
     inkscape:connector-curvature="0" />
  <path
     style="fill:#a2bcfe;stroke-width:1.11999261"
     d="m 127.99926,61.01778 c -8.16701,2.43063 -17.02592,4.94373 -17.02592,4.94373 l -50.075199,22.89203 1.064579,18.28009 57.59652,34.94144 8.44002,1.46925 z"
     id="path34"
     inkscape:connector-curvature="0" />
  <path
     style="opacity:0.2;fill:#0f1a28;stroke-width:1.11999261"
     d="M 82.037301,27.36208 16,65.11429 v 5.03997 L 61.961962,107.13515 127.99926,65.92787 V 60.8879 Z M 16,143.05944 82.037301,186.3799 127.99926,147.81414 v -5.03997 L 61.961962,107.13515 16,138.01946 Z m 111.99926,4.7547 46.49029,38.56576 65.50898,-42.79219 v -5.03997 l -45.43368,-31.41259 -66.56559,35.63902 z M 239.99853,70.15426 V 65.11429 L 174.48955,27.36208 127.99926,60.8879 v 5.03997 l 66.56559,41.20728 z M 128.52754,156.26688 82.037301,194.8327 62.666361,181.77695 v 10.02331 l 65.332569,38.8862 67.19989,-38.8862 v -4.86372 l -20.70927,7.89616 z"
     id="path36"
     inkscape:connector-curvature="0" />
  <path
     style="fill:#5884f4;stroke-width:1.11999261"
     d="M 82.037301,22.32211 16,65.11429 61.961962,102.09518 127.99926,60.8879 Z M 16,138.01946 82.037301,181.33995 127.99926,142.77417 61.961962,102.09518 Z m 111.99926,4.75471 46.49029,38.56578 65.50898,-42.79221 -45.43368,-36.45256 z M 239.99853,65.11429 174.48955,22.32211 127.99926,60.8879 l 66.56559,41.20728 z"
     id="path38"
     inkscape:connector-curvature="0" />
  <path
     style="fill:#2f5fdd;stroke-width:1.11999261"
     d="m 127.99926,142.77417 c -79.643917,71.26157 -39.821956,35.63079 0,0 z m 0,0 -45.961959,38.56578 -19.37094,-12.76675 v 23.22706 L 128.52754,231 195.19882,191.80026 v -23.9893 l -20.70927,13.52899 z"
     id="path40"
     inkscape:connector-curvature="0" />
  <path
     style="fill:#234db8;stroke-width:1.11999261"
     d="M 127.99893,230.68646 128.52754,231 195.19849,191.80026 v -23.98942 l -20.70824,13.52961 -46.49132,-38.56537 z"
     id="path42"
     inkscape:connector-curvature="0" />
  <path
     style="opacity:0.2;fill:#0f1a28;stroke-width:1.11999261"
     d="m 62.666361,173.61362 19.37094,12.76628 45.961959,-38.56576 v -5.03997 L 82.037301,181.33995 62.666361,168.5732 Z m 65.332899,-25.79948 46.49029,38.56576 20.70927,-13.51446 v -5.05448 l -20.70927,13.52899 -46.49029,-38.56578 z"
     id="path44"
     inkscape:connector-curvature="0" />
  <path
     style="opacity:0.3;fill:#ffffff;stroke-width:1.11999261"
     d="m 82.037301,22.32211 -66.035819,42.7916 1.542175,1.2403 64.493644,-41.79191 44.432199,37.28132 1.53125,-0.95594 z M 128.00075,60.88748 129.5473,61.8456 174.49138,24.5621 238.47315,66.3562 240,65.11371 174.49138,22.32211 Z m -67.451124,42.31254 -44.548144,34.81821 1.557485,1.02155 44.403776,-34.70446 z m 1.413117,1.1353 64.498007,39.72912 1.54,-1.29061 -64.231145,-39.56507 z m 66.038007,38.43851 1.5553,1.29061 65.00989,-39.72912 -1.81998,-1.12656 z m 66.56519,-38.43851 43.89408,35.21852 L 240,138.5476 195.9528,103.20658 Z"
     id="path46"
     inkscape:connector-curvature="0" />
  <path
     style="opacity:0.2;stroke-width:1.11999261"
     d="m 126.46838,59.60468 -64.506761,40.25192 1.806862,1.11343 64.231139,-40.08129 z m 1.53124,1.28406 64.7452,40.08129 1.81999,-1.11343 -65.01864,-40.24973 z m 66.56519,38.96786 1.38686,1.11125 44.04721,-35.85289 -1.52685,-0.9975 z m -132.603191,0 -44.419087,-35.74132 -1.542174,0.99968 44.548144,35.84633 z m -44.403776,36.94445 -1.557485,1.21842 66.038003,43.32098 45.961259,-38.56538 -1.53998,-0.94718 -44.421279,37.27257 z m 110.441777,5.97402 46.49063,38.56538 65.50863,-42.7916 -1.53998,-1.23375 -63.96865,41.78536 -44.93532,-37.27475 z"
     id="path48"
     inkscape:connector-curvature="0" />
  <path
     style="opacity:0.2;stroke-width:1.11999261"
     d="m 62.664542,189.56027 v 2.23999 L 128.52754,231 195.19772,191.80026 v -2.23999 l -66.67018,39.19975 z"
     id="path50"
     inkscape:connector-curvature="0" />
</svg>
